svgs/nebula.svg

<svg width="192" height="192" viewBox="0 0 50.8 50.8" xml:space="preserve" xmlns="http://www.w3.org/2000/svg"><path style="fill:none;stroke:#000;stroke-width:2.97332;stroke-linecap:round;stroke-linejoin:round;stroke-dasharray:none;stroke-opacity:1" d="m20.404 31.36 4.847 14.195 4.6-14.295 14.988-.05-11.97-9.002 4.748-14.344-12.316 9.002-12.416-9.15 4.65 14.492-11.773 9.003Z"/></svg>

<svg id="vector" xmlns="http://www.w3.org/2000/svg" width="192" height="192" viewBox="0 0 50.8 50.8"><path fill="#00000000" d="M20.404,31.359 L25.251,45.555 29.851,31.26 44.839,31.211 32.869,22.208 37.617,7.864 25.301,16.866 12.885,7.715 17.535,22.208 5.762,31.211Z" stroke-linejoin="round" stroke-width="2.97332" stroke="#000000" stroke-linecap="round" id="path_0"/></svg>
